X:18
T: SUSE KINDKEN SUSE
N: K0057
O: Europa, Mitteleuropa, Deutschland, Westfalen
R: Kinder -, Wiegen - Lied
M: 2/4
L: 1/16
K: G
 | B2B2A2A2 | G4D2z2 |
B2B2A2A2 | G4D2z2 |
B2B2B2B2 | c3cc2
c2 | A2A2A2A2 | B3BB2z2 |
B2B2A2A2 | G4D2z2

@@@ Tune index: 7355
